X:18
T: Die wiedergefundene Schwester (Suedeli - Ballade)
N: Q0072Q
O: Mitteleuropa, Deutschland (DDR) , Provinz Sachsen
R: Ballade, Entfuehrung, Adelige als Dienstmagd, Rueckkehr
M: 4/4
L: 1/16
K: F
A2G2 | F4F3FF2G2A2B2 | c4c3cc4
d4 | c4B3BB4c2B2 | B2A2A4A4
c4 | A4G4G4F2G2 | A4A4A4
c4 | c4G4G4F2G2 | A4A4A4

@@@ Tune index: 1073
